X: 37654
T: Snow Shoers, The
R: reel
M: 4/4
K: Dmajor
d2 Ad f2 ed|cAce gece|d2 Ad f2 ed|cBAG FD D2|
d2 Ad f2 ed|cAce gece|d2 Ad f2 ed|cBAG FD D2||
FDAD FDEF|GABA GFEG|FDAD FDEF|GBAG FDDG|
FDAD FDEF|GABA GFEG|FDAD FDEF|GBAG FD D2||

